X:12004
T:Lily Marlene
T:Lili Marleen
R:Air
C:Norbert Schultze 1938
N:Sung by both sides in World War II
O:Germany
M:4/4
L:1/8
Q:1/4=100
K:G
"G"B>B B>c d2 B2|"Am"c>c c>g "D"f4|"Am"A>A A>B "D7"c2 c>d|f>e d>c "G"B3 G|
"C"e2 f>g f2 e2|"G"e2 d2 f3 e|"D7"d2 c2 e3 d|"G"c2 B2 d3 B|
"D7"d3 c "Am"c2 a2|"Em"g4 "G"d2 B2|"G"d3 c "Am"c2 F2|"G"G6 z2|

